icons/sti_fill.svg

<svg width="48" height="48" viewBox="0 0 48 48" fill="none" xmlns="http://www.w3.org/2000/svg">
<path d="M28 8C28 10.2091 26.2091 12 24 12C21.7909 12 20 10.2091 20 8C20 5.79086 21.7909 4 24 4C26.2091 4 28 5.79086 28 8Z" fill="black"/>
<path fill-rule="evenodd" clip-rule="evenodd" d="M14.8256 15.0773C15.1698 14.4153 15.8539 14 16.6 14H29.0184C31.1404 14 32.9102 14.7416 34.1536 16.0013C35.3754 17.239 35.9842 18.8719 35.9997 20.4808C36.0152 22.0911 35.436 23.7407 34.2068 24.9941C33.1528 26.0688 31.715 26.7579 30 26.9471V42C30 43.0747 29.1507 43.9573 28.0768 43.9985C27.0028 44.0398 26.0883 43.2249 26.0059 42.1534L25.1354 30.8366C26.7915 30.3472 28 28.8147 28 27C28 24.7909 26.2091 23 24 23C23.4175 23 22.8641 23.1245 22.365 23.3483C22.1696 22.7726 21.7999 22.2301 21.2513 21.7625C20.2485 20.9077 19.3691 20.1845 18.74 19.6747C18.4259 19.4201 18.174 19.2186 18 19.0802V18H17.8142L16.6465 20.2457L16.4947 20.4396L16.5106 20.4521L16.5602 20.4911C16.6041 20.5258 16.6694 20.5775 16.7543 20.6449C16.9239 20.7798 17.1713 20.9777 17.4808 21.2285C18.0998 21.7302 18.9662 22.4426 19.9539 23.2846C20.4596 23.7156 20.562 24.1367 20.5219 24.4839C20.4767 24.8756 20.2288 25.3225 19.7768 25.6823C19.0482 26.2623 17.9383 26.5037 16.8688 25.8563L12.7506 22.5617C12.0049 21.9652 11.785 20.9246 12.2256 20.0773L14.8256 15.0773ZM20.0847 27.8229C19.4522 28.1137 18.738 28.2693 18 28.2381V42C18 43.0747 18.8493 43.9573 19.9232 43.9985C20.9972 44.0398 21.9117 43.2249 21.9941 42.1534L22.8646 30.8366C21.4659 30.4233 20.3865 29.2659 20.0847 27.8229ZM24 29C25.1046 29 26 28.1046 26 27C26 25.8954 25.1046 25 24 25C22.8954 25 22 25.8954 22 27C22 28.1046 22.8954 29 24 29ZM30 18.1075V22.8998C30.6409 22.7569 31.0697 22.4801 31.3509 22.1934C31.7767 21.7593 32.006 21.1589 31.9999 20.5192C31.9937 19.8781 31.7508 19.261 31.3069 18.8112C31.0203 18.5209 30.601 18.251 30 18.1075Z" fill="black"/>
</svg>

<svg
  xmlns="http://www.w3.org/2000/svg"
  width="24"
  height="24"
  viewBox="0 0 24 24"
  fill="none"
  stroke="currentColor"
  stroke-width="2"
  stroke-linecap="round"
  stroke-linejoin="round"
>
  <path d="M28 8a4 4 0 1 1-8 0 4 4 0 0 1 8 0" />
  <path
    fill-rule="evenodd"
    d="M14.826 15.077A2 2 0 0 1 16.6 14h12.418c2.122 0 3.892.742 5.136 2.001A6.46 6.46 0 0 1 36 20.481c.015 1.61-.564 3.26-1.793 4.513-1.054 1.075-2.492 1.764-4.207 1.953V42a2 2 0 0 1-3.994.153l-.87-11.316a4.002 4.002 0 1 0-2.771-7.489c-.195-.575-.565-1.118-1.114-1.585A133 133 0 0 0 18 19.08V18h-.186l-1.168 2.246-.151.194.016.012.05.04a120 120 0 0 1 .92.736c.619.502 1.485 1.215 2.473 2.057.506.43.608.852.568 1.199-.045.392-.293.838-.745 1.198-.729.58-1.839.822-2.908.174l-4.118-3.294a2 2 0 0 1-.525-2.485zm5.259 12.746a4.54 4.54 0 0 1-2.085.415V42a2 2 0 0 0 3.994.153l.87-11.316a4.01 4.01 0 0 1-2.78-3.014M24 29a2 2 0 1 0 0-4 2 2 0 0 0 0 4m6-10.892V22.9c.64-.143 1.07-.42 1.35-.707A2.34 2.34 0 0 0 32 20.52a2.46 2.46 0 0 0-.693-1.708c-.287-.29-.706-.56-1.307-.703"
    clip-rule="evenodd"
  />
</svg>
